svgs/bluebubbles.svg

<svg width="192" height="192" viewBox="0 0 192 192" fill="none" xmlns="http://www.w3.org/2000/svg">
<g clip-path="url(#clip0_135_6)">
<g clip-path="url(#clip1_135_6)">
<path d="M96 28C55.1291 28 22 56.656 22 92.0082C22 115.15 36.192 135.417 57.4628 146.661C55.3185 155.837 45.8285 164.942 45.8285 164.942C45.8285 164.942 60.1324 163.939 75.022 153.402C81.6702 155.103 88.7145 156.016 96 156.016C136.862 156.016 170 127.36 170 92.0082C170 56.656 136.862 28 96 28V28ZM64.3608 104.183C57.48 104.183 51.9083 98.3911 51.9083 91.2383C51.9083 84.0855 57.48 78.2845 64.3608 78.2845C71.2415 78.2845 76.8218 84.0855 76.8218 91.2383C76.8218 98.3911 71.2415 104.183 64.3608 104.183ZM95.7675 104.183C88.8868 104.183 83.3064 98.3911 83.3064 91.2383C83.3064 84.0855 88.8868 78.2845 95.7675 78.2845C102.648 78.2845 108.229 84.0855 108.229 91.2383C108.229 98.3911 102.648 104.183 95.7675 104.183ZM127.243 104.183C120.362 104.183 114.791 98.3911 114.791 91.2383C114.791 84.0855 120.362 78.2845 127.243 78.2845C134.124 78.2845 139.704 84.0855 139.704 91.2383C139.704 98.3911 134.124 104.183 127.243 104.183Z" stroke="black" stroke-width="12"/>
</g>
</g>
<defs>
<clipPath id="clip0_135_6">
<rect width="192" height="192" fill="white"/>
</clipPath>
<clipPath id="clip1_135_6">
<rect width="192" height="192" fill="white"/>
</clipPath>
</defs>
</svg>

<svg width="192" height="192" fill="none" xmlns="http://www.w3.org/2000/svg"><g clip-path="url(#a)"><g clip-path="url(#b)"><path d="M96 28c-40.87 0-74 28.656-74 64.008 0 23.142 14.192 43.409 35.463 54.653-2.145 9.176-11.635 18.281-11.635 18.281s14.304-1.003 29.194-11.54c6.648 1.701 13.692 2.614 20.978 2.614 40.862 0 74-28.656 74-64.008S136.862 28 96 28Zm-31.64 76.183c-6.88 0-12.452-5.792-12.452-12.945 0-7.153 5.572-12.954 12.453-12.954 6.88 0 12.46 5.801 12.46 12.954 0 7.153-5.58 12.945-12.46 12.945Zm31.407 0c-6.88 0-12.46-5.792-12.46-12.945 0-7.153 5.58-12.954 12.46-12.954 6.881 0 12.462 5.801 12.462 12.954 0 7.153-5.581 12.945-12.462 12.945Zm31.476 0c-6.881 0-12.452-5.792-12.452-12.945 0-7.153 5.571-12.954 12.452-12.954s12.461 5.801 12.461 12.954c0 7.153-5.58 12.945-12.461 12.945Z" stroke="#000" stroke-width="12"/></g></g><defs><clipPath id="a"><path fill="#fff" d="M0 0h192v192H0z"/></clipPath><clipPath id="b"><path fill="#fff" d="M0 0h192v192H0z"/></clipPath></defs></svg>
